packages/components/svg/github.svg

<?xml version="1.0" encoding="UTF-8"?>
<svg width="24px" height="24px" viewBox="0 0 24 24" version="1.1" xmlns="http://www.w3.org/2000/svg" xmlns:xlink="http://www.w3.org/1999/xlink">
    <!-- Generator: Sketch 52.5 (67469) - http://www.bohemiancoding.com/sketch -->
    <title>github</title>
    <desc>Created with Sketch.</desc>
    <g id="Icons" stroke="none" stroke-width="1" fill="none" fill-rule="evenodd">
        <g id="Github" fill="#FFFFFF">
            <path d="M9.10646745,24 C9.1042981,23.5339514 9.1011105,23.0862671 9.09690463,22.6569471 C9.0903966,22.012967 9.08734181,21.4511675 9.08734181,20.9718139 L8.65123752,21.0471626 C8.37318535,21.0980363 8.02241591,21.119593 7.59892923,21.1134908 C7.17564177,21.1075876 6.73621706,21.0632804 6.28125277,20.9809008 C5.82608926,20.8992509 5.40273539,20.709884 5.01085913,20.4131981 C4.61918209,20.1165123 4.34112991,19.7281609 4.176769,19.248741 L3.98717288,18.812965 C3.8607976,18.5228456 3.66183788,18.2005571 3.3900281,17.8472933 C3.11821831,17.4936979 2.84335374,17.2539879 2.56530156,17.1277654 L2.43255107,17.0328498 C2.34409501,16.9697718 2.26201417,16.8936934 2.18610931,16.8054106 C2.11027086,16.7171278 2.05349164,16.6287787 2.01557241,16.5402969 C1.97758678,16.4517488 2.00906439,16.3791195 2.11033727,16.3221436 C2.21161016,16.2651677 2.39463184,16.2375089 2.66019923,16.2375089 L3.03925867,16.2940868 C3.29207563,16.3446952 3.60479302,16.4958571 3.97780929,16.748501 C4.35062632,17.000946 4.65710132,17.3291377 4.89730068,17.7329435 C5.18816969,18.2507012 5.53860708,18.645221 5.94960897,18.9167022 C6.36027883,19.1881833 6.77433551,19.3236918 7.19138057,19.3236918 C7.60842564,19.3236918 7.96862507,19.2921196 8.27211169,19.2293068 C8.57526626,19.1661624 8.85969365,19.0712468 9.12526104,18.9450906 C9.23901871,18.098876 9.54874772,17.4487937 10.0541824,16.9943795 C9.33378357,16.9187654 8.68610196,16.80488 8.11080556,16.6534528 C7.5358412,16.5018266 6.9416848,16.2557491 6.32873481,15.9145571 C5.71545278,15.5738293 5.20669765,15.150722 4.8023366,14.6459647 C4.39790914,14.1409421 4.06599971,13.4779258 3.80707316,12.6575129 C3.5480138,11.8367682 3.41845091,10.8900001 3.41845091,9.81694313 C3.41845091,8.289074 3.91784245,6.98890943 4.91642631,5.91571983 C4.44864519,4.76704877 4.49280681,3.4793539 5.04904399,2.05276787 C5.41561863,1.93901508 5.9592382,2.02437942 6.67963706,2.30833026 C7.40016874,2.59241377 7.92771747,2.83577178 8.2628145,3.03754204 C8.59791154,3.23924597 8.8664009,3.41017363 9.06868104,3.54879949 C10.2444426,3.22067409 11.4577914,3.05657822 12.7090594,3.05657822 C13.9603274,3.05657822 15.1739419,3.22067409 16.3497699,3.54879949 L17.0702351,3.09451793 C17.5629194,2.79139824 18.1447239,2.51361591 18.8142539,2.26110461 C19.4841823,2.00872597 19.9964571,1.93921406 20.3505469,2.05296685 C20.9191361,3.47961922 20.9698057,4.76724776 20.5018918,5.91591881 C21.5004092,6.98910842 22,8.28960462 22,9.81714211 C22,10.8901991 21.8699723,11.839952 21.6113113,12.6669978 C21.3523184,13.4941762 21.0175534,14.1565292 20.6068835,14.6554496 C20.1957488,15.1543037 19.6837397,15.5740946 19.0707897,15.9147561 C18.4577069,16.2556828 17.8633513,16.5017603 17.2883869,16.6533864 C16.7131569,16.8050126 16.0654753,16.9189644 15.3450764,16.9947111 C16.0021216,17.5626128 16.3307106,18.4590379 16.3307106,19.6835884 L16.3307106,24 L9.10646745,24 Z" id="Shape"></path>
        </g>
    </g>
</svg>

<svg width="24" height="24" viewbox="0 0 24 24" xmlns="http://www.w3.org/2000/svg">
  <g>
    <path
      d="M9.106 24c-.002-.466-.005-.914-.01-1.343-.006-.644-.01-1.206-.01-1.685l-.435.075c-.277.05-.628.073-1.05.066-.424-.005-.864-.05-1.32-.132-.454-.08-.877-.27-1.27-.567-.39-.296-.67-.685-.833-1.164l-.19-.437c-.126-.29-.325-.612-.597-.966-.272-.353-.547-.593-.825-.72l-.132-.094c-.09-.063-.17-.14-.247-.228-.076-.088-.133-.176-.17-.265-.038-.088-.007-.16.094-.218.102-.057.285-.084.55-.084l.38.056c.252.05.565.202.938.455.373.25.68.58.92.983.29.518.64.912 1.052 1.184.41.27.824.407 1.24.407.418 0 .78-.032 1.082-.095.303-.064.588-.16.853-.285.114-.846.424-1.496.93-1.95-.72-.076-1.37-.19-1.944-.342-.574-.15-1.168-.397-1.78-.738-.615-.34-1.123-.764-1.528-1.27-.404-.504-.736-1.167-.995-1.987-.26-.82-.39-1.768-.39-2.84 0-1.53.5-2.83 1.5-3.902-.468-1.15-.424-2.437.132-3.863.366-.114.91-.03 1.63.255.72.284 1.248.528 1.583.73.335.2.603.372.806.51 1.174-.327 2.388-.49 3.64-.49 1.25 0 2.464.163 3.64.49l.72-.453c.493-.304 1.075-.58 1.744-.834.67-.25 1.182-.32 1.537-.207.57 1.427.62 2.714.152 3.863C21.5 6.99 22 8.29 22 9.816c0 1.074-.13 2.024-.39 2.85-.258.828-.592 1.49-1.003 1.99-.41.498-.923.918-1.536 1.26-.612.34-1.207.586-1.782.737-.575.152-1.223.266-1.943.342.657.568.986 1.464.986 2.69V24H9.107z"></path>
  </g>
</svg>
